!!!COM: Ockeghem, Johannes
!!!CDT: ~1425-1497/02/06
!!!OTL: Je n'ay dueil
!!!AGN: Song; Chanson
!!!SCT: Ock3007.2
!!!SCA: Ock3007.2
!!!voices: 4
**kern	**text	**text	**text	**kern	**text	**text	**text	**kern	**text	**text	**text	**kern	**text	**text	**text
*staff4	*staff4	*staff4	*staff4	*staff3	*staff3	*staff3	*staff3	*staff2	*staff2	*staff2	*staff2	*staff1	*staff1	*staff1	*staff1
*Ivox	*	*	*	*Ivox	*	*	*	*Ivox	*	*	*	*Ivox	*	*	*
*I"Bassus	*	*	*	*I"Contra	*	*	*	*I"Tenor	*	*	*	*I"Superius	*	*	*
*I'B	*	*	*	*I'C	*	*	*	*I'T	*	*	*	*I'S	*	*	*
*clefF4	*	*	*	*clefGv2	*	*	*	*clefG2	*	*	*	*clefG2	*	*	*
*k[b-]	*	*	*	*k[]	*	*	*	*k[]	*	*	*	*k[]	*	*	*
*M2/1	*	*	*	*M2/1	*	*	*	*M2/1	*	*	*	*M2/1	*	*	*
*met(C|)	*	*	*	*met(C|)	*	*	*	*met(C|)	*	*	*	*met(C|)	*	*	*
=1-	=1-	=1-	=1-	=1-	=1-	=1-	=1-	=1-	=1-	=1-	=1-	=1-	=1-	=1-	=1-
!!LO:TX:Z=42:t=Revised version, with extraordinary ranges (see Litterick 1980)
!!LO:TX:Z=8:t=Form&colon; rondeau
1.D	Je	Ma	Je	0D	Je	Ma	Je	0d	Je	Ma	Je	0r	.	.	.
4C	.	.	.	.	.	.	.	.	.	.	.	.	.	.	.
4BB-	.	.	.	.	.	.	.	.	.	.	.	.	.	.	.
=2	=2	=2	=2	=2	=2	=2	=2	=2	=2	=2	=2	=2	=2	=2	=2
1AA	n'ay	dou-	n'ay	0A	n'ay	dou-	n'ay	0f	n'ay	dou-	n'ay	0r	.	.	.
1D	.	.	.	.	.	.	.	.	.	.	.	.	.	.	.
=3	=3	=3	=3	=3	=3	=3	=3	=3	=3	=3	=3	=3	=3	=3	=3
0GG	dueil	-leur	plus	0B-i	dueil	-leur	plus	0g	dueil	-leur	plus	0r	.	.	.
=4	=4	=4	=4	=4	=4	=4	=4	=4	=4	=4	=4	=4	=4	=4	=4
0r	.	.	.	1A	.	.	.	[0a	que	est	riens	0a	Je	Ma	Je
.	.	.	.	[1c	.	.	.	.	.	.	.	.	.	.	.
=5	=5	=5	=5	=5	=5	=5	=5	=5	=5	=5	=5	=5	=5	=5	=5
0r	.	.	.	2c]	.	.	.	0a]	.	.	.	0cc	n'ay	dou-	n'ay
.	.	.	.	2B-i	.	.	.	.	.	.	.	.	.	.	.
.	.	.	.	1A	.	.	.	.	.	.	.	.	.	.	.
=6	=6	=6	=6	=6	=6	=6	=6	=6	=6	=6	=6	=6	=6	=6	=6
0r	.	.	.	0G	.	.	.	0b-i	je	plus	qui	0dd	dueil	-leur	plus
=7	=7	=7	=7	=7	=7	=7	=7	=7	=7	=7	=7	=7	=7	=7	=7
0r	.	.	.	0r	.	.	.	0a	ne	que	me	0ee	que	est	riens
=8	=8	=8	=8	=8	=8	=8	=8	=8	=8	=8	=8	=8	=8	=8	=8
0r	.	.	.	0r	.	.	.	1g	suis	trop	con-	1ee	je	plus	qui
.	.	.	.	.	.	.	.	1a	.	.	.	[1ee	ne	que	me
=9	=9	=9	=9	=9	=9	=9	=9	=9	=9	=9	=9	=9	=9	=9	=9
0r	.	.	.	0r	.	.	.	1bni	.	.	.	2ee]	.	.	.
.	.	.	.	.	.	.	.	.	.	.	.	2dd	.	.	.
.	.	.	.	.	.	.	.	[1cc	mor-	for-	-for-	1ee	.	.	.
=10	=10	=10	=10	=10	=10	=10	=10	=10	=10	=10	=10	=10	=10	=10	=10
0r	.	.	.	0r	.	.	.	2cc]	.	.	.	1ff	suis	trop	con-
.	.	.	.	.	.	.	.	4b	.	.	.	.	.	.	.
.	.	.	.	.	.	.	.	4a	.	.	.	.	.	.	.
.	.	.	.	.	.	.	.	2g	.	.	.	[1gg	mor-	for-	-for-
.	.	.	.	.	.	.	.	2a	.	.	.	.	.	.	.
=11	=11	=11	=11	=11	=11	=11	=11	=11	=11	=11	=11	=11	=11	=11	=11
0GG	Ne	Car	D'oeil	0G	Ne	Car	D'oeil	0b-i	.	.	.	2gg]	.	.	.
.	.	.	.	.	.	.	.	.	.	.	.	4ff	.	.	.
.	.	.	.	.	.	.	.	.	.	.	.	4ee	.	.	.
.	.	.	.	.	.	.	.	.	.	.	.	1dd	.	.	.
=12	=12	=12	=12	=12	=12	=12	=12	=12	=12	=12	=12	=12	=12	=12	=12
[0AA	doy	sans	ne	0E	.	.	.	0a	-te;	-te,	-te;	0cc	-te;	-te,	-te;
=13	=13	=13	=13	=13	=13	=13	=13	=13	=13	=13	=13	=13	=13	=13	=13
1AA]	.	.	.	0A	doy	sans	ne	0f	Ne	Car	D'oeil	0r	.	.	.
1D	.	.	.	.	.	.	.	.	.	.	.	.	.	.	.
=14	=14	=14	=14	=14	=14	=14	=14	=14	=14	=14	=14	=14	=14	=14	=14
1E	.	.	voy	0G	.	.	.	1e	doy	sans	ne	0cc	Ne	Car	D'oeil
1C	.	.	.	.	.	.	.	1e	je	a-	voy	.	.	.	.
=15	=15	=15	=15	=15	=15	=15	=15	=15	=15	=15	=15	=15	=15	=15	=15
1r	.	.	.	1F	je	a-	voy	0d	bien	-voir	plus	1ff	doy	sans	ne
1D	je	a-	plus	[1A	bien	-voir	plus	.	.	.	.	1ff	je	a-	voy
=16	=16	=16	=16	=16	=16	=16	=16	=16	=16	=16	=16	=16	=16	=16	=16
0AA	bien	-voir	.	2A]	.	.	.	0c	.	.	.	0ee	bien	-voir	plus
.	.	.	.	4G	.	.	.	.	.	.	.	.	.	.	.
.	.	.	.	4F	.	.	.	.	.	.	.	.	.	.	.
.	.	.	.	1E	.	.	.	.	.	.	.	.	.	.	.
=17	=17	=17	=17	=17	=17	=17	=17	=17	=17	=17	=17	=17	=17	=17	=17
0BB-	.	.	.	1r	.	.	.	1.f	vou-	au-	que	[0dd	vou-	au-	que
.	.	.	.	[1F	vou-	au-	que	.	.	.	.	.	.	.	.
.	.	.	.	.	.	.	.	2g	.	.	.	.	.	.	.
=18	=18	=18	=18	=18	=18	=18	=18	=18	=18	=18	=18	=18	=18	=18	=18
1r	.	.	.	2F]	.	.	.	2a	.	.	.	1dd]	.	.	.
.	.	.	.	2D	.	.	.	2b-i	.	.	.	.	.	.	.
1AA	vou-	au-	que	1E	.	.	.	[1a	.	.	.	1cc	.	.	.
=19	=19	=19	=19	=19	=19	=19	=19	=19	=19	=19	=19	=19	=19	=19	=19
1D	.	.	.	1D	-loir,	-cun,	.	1a]	.	.	.	0b	.	.	.
1E	.	.	.	1r	.	.	.	1g	.	.	.	.	.	.	.
=20	=20	=20	=20	=20	=20	=20	=20	=20	=20	=20	=20	=20	=20	=20	=20
1F	-loir	-cun	des-	0D	vou-	au-	des-	1a	-loir	-cun	des-	1a	-loir	-cun	des-
1D	.	.	.	.	.	.	.	1f	.	.	.	[1dd	mo-	plai-	-plai-
=21	=21	=21	=21	=21	=21	=21	=21	=21	=21	=21	=21	=21	=21	=21	=21
0AA	mo-	plai-	-plai-	0A	-loir	-cun	.	0e	mo-	plai-	-plai-	2dd]	.	.	.
.	.	.	.	.	.	.	.	.	.	.	.	2b	.	.	.
.	.	.	.	.	.	.	.	.	.	.	.	1cc#i	.	.	.
=22	=22	=22	=22	=22	=22	=22	=22	=22	=22	=22	=22	=22	=22	=22	=22
0BB-	-rir?	-sir,&	-sir.	1.F	mo-	plai-	-plai-	0d	-rir?	-sir,&	-sir,	1.dd	-rir?	-sir,	-sir.
.	.	.	.	2G	.	.	.	.	.	.	.	2ee	.	.	.
=23	=23	=23	=23	=23	=23	=23	=23	=23	=23	=23	=23	=23	=23	=23	=23
1AA	.	.	.	1A	-rir	-sir,&	-sir.	0r	.	.	.	1ff	.	.	.
1GG	.	.	.	[1D	.	.	.	.	.	.	.	[1gg	.	.	.
=24	=24	=24	=24	=24	=24	=24	=24	=24	=24	=24	=24	=24	=24	=24	=24
0BB-	.	.	.	0D]	.	.	.	1.g	mo-	plai-	des-	2gg]	.	.	.
.	.	.	.	.	.	.	.	.	.	.	.	2ff	.	.	.
.	.	.	.	.	.	.	.	.	.	.	.	2ee	.	.	.
.	.	.	.	.	.	.	.	4f	.	.	-plai-	2dd	.	.	.
.	.	.	.	.	.	.	.	4g	.	.	.	.	.	.	.
=25	=25	=25	=25	=25	=25	=25	=25	=25	=25	=25	=25	=25	=25	=25	=25
0AAN	.	.	.	0EN	.	.	.	0aN	-rir?	-sir,&	-sir.	0ccN	.	.&	.
=26	=26	=26	=26	=26	=26	=26	=26	=26	=26	=26	=26	=26	=26	=26	=26
1.F	Dueil	.	Mort	0r	.	.	.	0a	Dueil	.	Mort	0r	.	.	.
2D	.	.	.	.	.	.	.	.	.	.	.	.	.	.	.
=27	=27	=27	=27	=27	=27	=27	=27	=27	=27	=27	=27	=27	=27	=27	=27
1D	a	.	est	0r	.	.	.	1b	a	.	est	0r	.	.	.
1D	vou-	.	le	.	.	.	.	1b	vou-	.	le	.	.	.	.
=28	=28	=28	=28	=28	=28	=28	=28	=28	=28	=28	=28	=28	=28	=28	=28
0AA	-lu	.	plus	1.A	Dueil	.	Mort	1.cc	-lu	.	plus	1.cc	Dueil	.	Mort
.	.	.	.	2B	.	.	.	2b	.	.	.	2dd	.	.	.
=29	=29	=29	=29	=29	=29	=29	=29	=29	=29	=29	=29	=29	=29	=29	=29
0r	.	.	.	1c	a	.	est	1g	.	.	.	1ee	a	.	est
.	.	.	.	1c	vou-	.	le	1g	mon	.	de	1ee	vou-	.	le
=30	=30	=30	=30	=30	=30	=30	=30	=30	=30	=30	=30	=30	=30	=30	=30
1D	mon	.	de	0F	-lu	.	plus	1f	.	.	.	1.ff	-lu	.	plus
1F	.	.	.	.	.	.	.	1a	.	.	.	.	.	.	.
.	.	.	.	.	.	.	.	.	.	.	.	4ee	.	.	.
.	.	.	.	.	.	.	.	.	.	.	.	4ff	.	.	.
=31	=31	=31	=31	=31	=31	=31	=31	=31	=31	=31	=31	=31	=31	=31	=31
1E	cueur	.	mon	0r	.	.	.	1g	.	.	.	1gg	.	.	.
1C	.	.	.	.	.	.	.	[1cc	.	.	.	1ee	.	.	.
=32	=32	=32	=32	=32	=32	=32	=32	=32	=32	=32	=32	=32	=32	=32	=32
0GG	.	.	.	0G	mon	.	de	2cc]	.	.	.	0dd	mon	.	de
.	.	.	.	.	.	.	.	2a	.	.	.	.	.	.	.
.	.	.	.	.	.	.	.	1b	.	.	.	.	.	.	.
=33	=33	=33	=33	=33	=33	=33	=33	=33	=33	=33	=33	=33	=33	=33	=33
0r	.	.	.	1A	cueur	.	mon	1.cc	cueur	.	mon	1cc	cueur	.	mon
.	.	.	.	1c	sai-	.	de-	.	.	.	.	1ee	sai-	.	de-
.	.	.	.	.	.	.	.	4b	.	.	.	.	.	.	.
.	.	.	.	.	.	.	.	4cc	.	.	.	.	.	.	.
=34	=34	=34	=34	=34	=34	=34	=34	=34	=34	=34	=34	=34	=34	=34	=34
0r	.	.	.	1B	.	.	.	1dd	.	.	.	1dd	.	.	.
.	.	.	.	1G	.	.	.	1b	.	.	.	[1gg	.	.	.
=35	=35	=35	=35	=35	=35	=35	=35	=35	=35	=35	=35	=35	=35	=35	=35
0r	.	.	.	0D	.	.	.	0a	sai-	.	de-	1gg]	.	.	.
.	.	.	.	.	.	.	.	.	.	.	.	1ff#i	.	.	.
=36	=36	=36	=36	=36	=36	=36	=36	=36	=36	=36	=36	=36	=36	=36	=36
2.C	sai-	.	de-	1.E	-sir,	.	-sir,	1.g	-sir,	.	-sir,	1gg	-sir,	.	-sir,
4D	.	.	.	.	.	.	.	.	.	.	.	.	.	.	.
2E	.	.	.	.	.	.	.	.	.	.	.	2r	.	.	.
[2F	.	.	.	[2D	sai-	.	de-	2a	sai-	.	de-	2cc	sai-	.	de-
=37	=37	=37	=37	=37	=37	=37	=37	=37	=37	=37	=37	=37	=37	=37	=37
2F]	.	.	.	2D]	.	.	.	2b	.	.	.	2dd	.	.	.
2E	.	.	.	2G	.	.	.	2cc	.	.	.	2ee	.	.	.
2D	.	.	.	2A	.	.	.	2dd	.	.	.	2.ff	.	.	.
2G	.	.	.	2B	.	.	.	2b	.	.	.	.	.	.	.
.	.	.	.	.	.	.	.	.	.	.	.	4gg	.	.	.
=38	=38	=38	=38	=38	=38	=38	=38	=38	=38	=38	=38	=38	=38	=38	=38
[0C	-sir,	.	-sir,	1G	.	.	.	1.cc	-sir,	.	-sir,	[0ee	-sir,	.	-sir,
.	.	.	.	[1c	-sir,	.	-sir,	.	.	.	.	.	.	.	.
.	.	.	.	.	.	.	.	4b	.	.	.	.	.	.	.
.	.	.	.	.	.	.	.	4a	.	.	.	.	.	.	.
=39	=39	=39	=39	=39	=39	=39	=39	=39	=39	=39	=39	=39	=39	=39	=39
0C]	.	.	.	2c]	.	.	.	1g	.	.	.	0ee]	.	.	.
.	.	.	.	4B	.	.	.	.	.	.	.	.	.	.	.
.	.	.	.	4A	.	.	.	.	.	.	.	.	.	.	.
.	.	.	.	1G	.	.	.	1g	Qui	.	Car	.	.	.	.
=40	=40	=40	=40	=40	=40	=40	=40	=40	=40	=40	=40	=40	=40	=40	=40
1.F	Qui	.	Car	1.F	Qui	.	Car	1a	.	.	.	1r	.	.	.
.	.	.	.	.	.	.	.	1a	de	.	quel-	1cc	Qui	.	Car
2E	.	.	.	2C	.	.	.	.	.	.	.	.	.	.	.
=41	=41	=41	=41	=41	=41	=41	=41	=41	=41	=41	=41	=41	=41	=41	=41
1D	de	.	quel-	1F	de	.	quel-	0b	tous	.	-que	1dd	de	.	quel-
1D	tous	.	-que	1F	tous	.	-que	.	.	.	.	1dd	tous	.	-que
=42	=42	=42	=42	=42	=42	=42	=42	=42	=42	=42	=42	=42	=42	=42	=42
0C	biens	.	chose	0G	biens	.	cho-	1.cc	biens	.	cho-	1.ee	biens	.	cho-
.	.	.	.	.	.	.	.	2b	.	.	.	2dd	.	.	.
=43	=43	=43	=43	=43	=43	=43	=43	=43	=43	=43	=43	=43	=43	=43	=43
0r	.	.	.	1A	.	.	.	1a	.	.	.	1cc	.	.	.
.	.	.	.	1B	.	.	.	1g	.	.	.	1b	.	.	.
=44	=44	=44	=44	=44	=44	=44	=44	=44	=44	=44	=44	=44	=44	=44	=44
0r	.	.	.	1c	me	.	-se	1a	me	.	-se	1a	me	.	-se
.	.	.	.	1d	des-	.	qu'on	1f	des-	.	qu'on	[1dd	des-	.	qu'on
=45	=45	=45	=45	=45	=45	=45	=45	=45	=45	=45	=45	=45	=45	=45	=45
1r	.	.	.	0A	-con-	.	m'a-	0e	-con-	.	m'a-	2dd]	.	.	.
.	.	.	.	.	.	.	.	.	.	.	.	4cc#i	.	.	.
.	.	.	.	.	.	.	.	.	.	.	.	4b	.	.	.
1AA	me	.	qu'on	.	.	.	.	.	.	.	.	1cc#i	-con-	.	m'a-
=46	=46	=46	=46	=46	=46	=46	=46	=46	=46	=46	=46	=46	=46	=46	=46
1D	des-	.	m'a-	1B-i	-for-	.	-por-	1d	-for-	.	-por-	1dd	-for-	.	-por-
1C	-con-	.	.	2c	.	.	.	[1a	.	.	.	2ee	.	.	.
.	.	.	.	[2A	.	.	.	.	.	.	.	[2ff	.	.	.
=47	=47	=47	=47	=47	=47	=47	=47	=47	=47	=47	=47	=47	=47	=47	=47
1D	-for-	.	-por-	2A]	.	.	.	0a_	.	.	.	2ff]	.	.	.
.	.	.	.	4G	.	.	.	.	.	.	.	4ee	.	.	.
.	.	.	.	4F	.	.	.	.	.	.	.	4dd	.	.	.
2AA	.	.	.	[1E	.	.	.	.	.	.	.	2.cc	.	.	.
[2C	.	.	.	.	.	.	.	.	.	.	.	.	.	.	.
.	.	.	.	.	.	.	.	.	.	.	.	4dd	.	.	.
=48	=48	=48	=48	=48	=48	=48	=48	=48	=48	=48	=48	=48	=48	=48	=48
2C]	.	.	.	2E]	.	.	.	1a]	.	.	.	2ee	.	.	.
2D	.	.	.	2F	.	.	.	.	.	.	.	2cc	.	.	.
1E	.	.	.	1G	.	.	.	1g	.	.	.	1b	.	.	.
=49	=49	=49	=49	=49	=49	=49	=49	=49	=49	=49	=49	=49	=49	=49	=49
2.AA	-te,	.	-te,	1E	-te,	.	-te,	2a	.	.	.	1a	-te,	.	-te,
.	.	.	.	.	.	.	.	2f	.	.	.	.	.	.	.
4BB-	.	.	.	.	.	.	.	.	.	.	.	.	.	.	.
1C	.	.	.	2r	.	.	.	1e	-te,	.	-te,	2.g	des-	.	qu'on
.	.	.	.	[2G	des-	.	qu'on	.	.	.	.	.	.	.	.
.	.	.	.	.	.	.	.	.	.	.	.	4a	.	.	.
=50	=50	=50	=50	=50	=50	=50	=50	=50	=50	=50	=50	=50	=50	=50	=50
2GG	des-	.	qu'on	2G]	.	.	.	2d	des-	.	qu'on	2b	.	.	.
2AA	.	.	.	2F	.	.	.	2c	.	.	.	2cc	.	.	.
2GG	-con-	.	m'a-	1G	-con-	.	m'a-	2e	-con-	.	m'a-	2b	-con-	.	m'a-
2BB-	.	.	.	.	.	.	.	2d	.	.	.	[2dd	-for-	.	-por-
=51	=51	=51	=51	=51	=51	=51	=51	=51	=51	=51	=51	=51	=51	=51	=51
2AA	-for-	.	-por-	1A	-for-	.	-por-	1f	-for-	.	-por-	4dd]	.	.	.
.	.	.	.	.	.	.	.	.	.	.	.	4cc	.	.	.
1C	.	.	.	.	.	.	.	.	.	.	.	4b	.	.	.
.	.	.	.	.	.	.	.	.	.	.	.	4a	.	.	.
.	.	.	.	1G	.	.	.	1e	.	.	.	2cc	.	.	.
[2GG	.	.	.	.	.	.	.	.	.	.	.	[2b	.	.	.
=52	=52	=52	=52	=52	=52	=52	=52	=52	=52	=52	=52	=52	=52	=52	=52
2GG]	.	.	.	1r	.	.	.	2d	.	.	.	2b]	.	.	.
2AA	.	.	.	.	.	.	.	2c	.	.	.	1a	.	.	.
1E	.	.	.	1G	-te.	.	-te,	1B	.	.	.	.	.	.	.
.	.	.	.	.	.	.	.	.	.	.	.	2g#i	.	.	.
=53	=53	=53	=53	=53	=53	=53	=53	=53	=53	=53	=53	=53	=53	=53	=53
0AAl	-te.	.	-te,	0El	.	.	.	0Al	-te.	.	-te,	0al	-te.	.	-te,
==	==	==	==	==	==	==	==	==	==	==	==	==	==	==	==
*-	*-	*-	*-	*-	*-	*-	*-	*-	*-	*-	*-	*-	*-	*-	*-
!!!RDF**kern: l=long note in original notation
!!!RDF**kern: i=editorial accidental
!!!RDF**kern: V=start of tuplet marker
!!!RDF**kern: Z=end of tuplet marker
!!!ENC: Jesse Rodin 16 April 2018
!!!END: 2018/04/16/
!!!EED: Jesse Rodin
!!!EEV: 2018/07/23/
!!!ONB: Translated from MusicXML and edited on 2018/07/23/ by Craig Sapp
!!muse2ps: C^@{COM}\nEd. @{EED}^i2I150v105,105,105,150Q16z18l2550c70
